Simply white circles/scalable/mimes/application-x-sln.svg

<?xml version="1.0" encoding="UTF-8" standalone="no"?>
<!-- Created with Inkscape (http://www.inkscape.org/) -->

<svg
   xmlns:dc="http://purl.org/dc/elements/1.1/"
   xmlns:cc="http://creativecommons.org/ns#"
   xmlns:rdf="http://www.w3.org/1999/02/22-rdf-syntax-ns#"
   xmlns:svg="http://www.w3.org/2000/svg"
   xmlns="http://www.w3.org/2000/svg"
   xmlns:xlink="http://www.w3.org/1999/xlink"
   xmlns:sodipodi="http://sodipodi.sourceforge.net/DTD/sodipodi-0.dtd"
   xmlns:inkscape="http://www.inkscape.org/namespaces/inkscape"
   version="1.1"
   width="48"
   height="48"
   id="svg21744"
   sodipodi:docname="application-x-sln.svg"
   inkscape:version="0.92.3 (2405546, 2018-03-11)">
  <sodipodi:namedview
     pagecolor="#ffffff"
     bordercolor="#666666"
     borderopacity="1"
     objecttolerance="10"
     gridtolerance="10"
     guidetolerance="10"
     inkscape:pageopacity="0"
     inkscape:pageshadow="2"
     inkscape:window-width="1366"
     inkscape:window-height="719"
     id="namedview44"
     showgrid="false"
     inkscape:zoom="7.2920387"
     inkscape:cx="-5.8743574"
     inkscape:cy="24"
     inkscape:window-x="0"
     inkscape:window-y="25"
     inkscape:window-maximized="1"
     inkscape:current-layer="svg21744"
     inkscape:snap-global="false" />
  <defs
     id="defs21746">
    <linearGradient
       x1="525.4375"
       y1="836.1875"
       x2="516.65625"
       y2="828.5"
       id="linearGradient14113"
       xlink:href="#linearGradient14494-2-7"
       gradientUnits="userSpaceOnUse"
       gradientTransform="translate(-125.5,-1702.64)" />
    <linearGradient
       id="linearGradient14494-2-7">
      <stop
         id="stop14496-9-3"
         style="stop-color:#dc85e9;stop-opacity:1"
         offset="0" />
      <stop
         id="stop14498-9-7"
         style="stop-color:#f2cbf8;stop-opacity:1"
         offset="1" />
    </linearGradient>
    <linearGradient
       x1="520.58502"
       y1="735.05206"
       x2="516.15179"
       y2="720.86298"
       id="linearGradient14115"
       xlink:href="#linearGradient14494-5"
       gradientUnits="userSpaceOnUse" />
    <linearGradient
       id="linearGradient14494-5">
      <stop
         id="stop14496-5"
         style="stop-color:#dc85e9;stop-opacity:1"
         offset="0" />
      <stop
         id="stop14498-1"
         style="stop-color:#f2cbf8;stop-opacity:1"
         offset="1" />
    </linearGradient>
    <linearGradient
       x1="525.4375"
       y1="836.1875"
       x2="516.65625"
       y2="828.5"
       id="linearGradient54948"
       xlink:href="#linearGradient14494-2-7"
       gradientUnits="userSpaceOnUse"
       gradientTransform="translate(-462.50049,-802.00385)" />
    <linearGradient
       x1="520.58502"
       y1="735.05206"
       x2="516.15179"
       y2="720.86298"
       id="linearGradient14109"
       xlink:href="#linearGradient14494-5"
       gradientUnits="userSpaceOnUse"
       gradientTransform="matrix(0.512535,0,0,0.615385,-202.35949,-422.92385)" />
    <linearGradient
       x1="525.4375"
       y1="836.1875"
       x2="516.65625"
       y2="828.5"
       id="linearGradient54952"
       xlink:href="#linearGradient14494-2-7"
       gradientUnits="userSpaceOnUse"
       gradientTransform="translate(-462.50049,-797.50385)" />
    <linearGradient
       x1="209.0625"
       y1="-765.46082"
       x2="209.0625"
       y2="-781.62268"
       id="linearGradient44039"
       xlink:href="#linearGradient15606-1"
       gradientUnits="userSpaceOnUse"
       gradientTransform="matrix(1.5,0,0,1.5,-364.99949,1176.9562)" />
    <linearGradient
       id="linearGradient15606-1">
      <stop
         id="stop15608-0"
         style="stop-color:#ffffff;stop-opacity:0.58823502"
         offset="0" />
      <stop
         id="stop15610-5"
         style="stop-color:#ffffff;stop-opacity:0.86274499"
         offset="1" />
    </linearGradient>
    <linearGradient
       x1="294.3429"
       y1="256.58133"
       x2="294.41818"
       y2="243.13852"
       id="linearGradient44042"
       xlink:href="#linearGradient10286-3"
       gradientUnits="userSpaceOnUse"
       gradientTransform="matrix(2.99213,0,0,3.00466,-830.71149,-727.44385)" />
    <linearGradient
       id="linearGradient10286-3">
      <stop
         id="stop10288-8"
         style="stop-color:#b3b3b3;stop-opacity:1"
         offset="0" />
      <stop
         id="stop10290-7"
         style="stop-color:#e6e6e6;stop-opacity:1"
         offset="1" />
    </linearGradient>
    <linearGradient
       x1="110.96875"
       y1="976.29968"
       x2="110.96875"
       y2="992.375"
       id="linearGradient43236"
       xlink:href="#linearGradient4145-42"
       gradientUnits="userSpaceOnUse" />
    <linearGradient
       id="linearGradient4145-42">
      <stop
         id="stop4953"
         style="stop-color:#e694bb;stop-opacity:1"
         offset="0" />
      <stop
         id="stop4955"
         style="stop-color:#d3819a;stop-opacity:1"
         offset="0.26238" />
      <stop
         id="stop4957"
         style="stop-color:#b25a64;stop-opacity:1"
         offset="0.704952" />
      <stop
         id="stop4959"
         style="stop-color:#98313d;stop-opacity:1"
         offset="1" />
    </linearGradient>
    <linearGradient
       x1="110.96875"
       y1="976.29968"
       x2="110.99982"
       y2="991.87488"
       id="linearGradient14097-7"
       xlink:href="#linearGradient4145-42"
       gradientUnits="userSpaceOnUse"
       gradientTransform="matrix(1,0,0,1.00011,0,-0.10551)" />
    <linearGradient
       x1="110.96875"
       y1="976.29968"
       x2="110.96875"
       y2="992.375"
       id="linearGradient21742"
       xlink:href="#linearGradient4145-42"
       gradientUnits="userSpaceOnUse"
       gradientTransform="matrix(1.00399,0,0,1.00959,-1.1658,-9.36636)" />
    <clipPath
       clipPathUnits="userSpaceOnUse"
       id="clipPath867">
      <g
         inkscape:label="Clip"
         id="use869">
        <path
           d="m 47.000614,3.0210706 v 0.75 40.5000404 0.72723 h 0.75 32.499399 0.75 v -0.72723 -25.50003 -0.3282 l -0.2344,-0.2343 -14.9059,-15.0000104 -0.1875,-0.1875 h -0.3282 -17.593399 z"
           id="path875"
           style="color:#000000;font-style:normal;font-variant:normal;font-weight:normal;font-stretch:normal;font-size:medium;line-height:normal;font-family:'Andale Mono';text-indent:0pt;text-align:start;text-decoration:none;text-decoration-line:none;letter-spacing:normal;word-spacing:normal;text-transform:none;direction:ltr;text-anchor:start;display:inline;overflow:visible;visibility:visible;fill:#000000;fill-opacity:1;fill-rule:nonzero;stroke:none;stroke-width:1;marker:none"
           inkscape:connector-curvature="0" />
      </g>
    </clipPath>
  </defs>
  <metadata
     id="metadata21749">
    <rdf:RDF>
      <cc:Work
         rdf:about="">
        <dc:format>image/svg+xml</dc:format>
        <dc:type
           rdf:resource="http://purl.org/dc/dcmitype/StillImage" />
        <dc:title></dc:title>
      </cc:Work>
    </rdf:RDF>
  </metadata>
  <path
     style="color:#000000;font-style:normal;font-variant:normal;font-weight:normal;font-stretch:normal;font-size:medium;line-height:normal;font-family:'Andale Mono';text-indent:0pt;text-align:start;text-decoration:none;text-decoration-line:none;letter-spacing:normal;word-spacing:normal;text-transform:none;direction:ltr;text-anchor:start;display:inline;overflow:visible;visibility:visible;fill:#e6e6e6;fill-opacity:1;stroke:none;stroke-width:5.99873972;marker:none"
     d="M 29.705078 -0.083984375 C 27.658234 -0.075805254 25.583576 0.00449542 25.1875 0.013671875 L 7 0.013671875 C 6.813106 -0.004321175 6.624454 -0.004321175 6.4375 0.013671875 C 5.062346 0.27607036 3.975341 1.6123101 4 3.0117188 L 4 45 C 4.00015 46.570313 5.429312 47.99985 7 48 L 41 48 C 42.570687 47.99985 43.99985 46.570313 44 45 L 44 18.818359 C 44.018 18.026395 44.215294 8.8914456 43.664062 8.3222656 L 34.054688 0.24804688 C 33.770027 -0.027426575 31.751922 -0.092163496 29.705078 -0.083984375 z M 31.195312 3.0097656 L 31.328125 10.513672 C 31.340155 11.195372 31.966379 11.80479 32.644531 11.792969 L 40.416016 11.65625 C 40.548988 11.674363 40.684161 11.672765 40.816406 11.650391 L 40.898438 14.679688 L 41 18.771484 L 41 22.775391 C 40.133171 19.793029 38.865247 17.400225 37.798828 14.847656 L 32.490234 17.035156 C 33.709486 19.504856 35.307437 21.968706 35.871094 23.191406 C 37.449093 26.613906 38.026317 28.145206 37.894531 30.753906 C 37.767154 33.275506 36.884837 34.798256 35.333984 36.285156 C 33.783091 37.771856 31.669217 38.542106 29.107422 38.191406 C 23.681723 37.448766 21.936202 33.388056 21.806641 31.410156 C 21.700079 29.783656 22.853067 25.776856 27.021484 25.972656 C 29.911178 26.108606 31.535166 27.692406 31.730469 30.378906 C 31.874382 32.358806 29.937562 34.357556 26.800781 33.347656 C 26.295856 33.185356 26.261371 34.080456 26.832031 34.535156 C 28.301202 35.705856 34.152434 35.258096 34.132812 30.660156 C 34.114573 26.399256 30.636399 23.523006 27.306641 23.503906 C 20.332982 23.463056 18.994354 28.937106 19.246094 32.691406 C 19.525121 36.850706 24.799305 41.880006 30.814453 41.878906 C 34.550306 41.878703 39.030544 39.209183 41 34.810547 L 41 44.271484 L 41 44.998047 L 40.25 44.998047 L 7.75 44.998047 L 7 44.998047 L 7 44.271484 L 7 3.7714844 L 7 3.0214844 L 7.75 3.0214844 L 25.34375 3.0214844 L 25.671875 3.0214844 L 31.195312 3.0097656 z "
     id="path14075" />
  <path
     inkscape:connector-curvature="0"
     style="opacity:0.75;fill:#999999;fill-rule:evenodd;stroke-width:1.00568783"
     d="m 17.318323,14.848036 c -3.860039,4.35e-4 -8.508066,2.8385 -10.366933,7.5 v 10.875 c 0.863308,3.3295 2.229245,5.8974 3.381946,8.6562 l 5.309893,-2.1875 c -1.219252,-2.4694 -2.818289,-4.9339 -3.381946,-6.1562 -1.577999,-3.4225 -2.154603,-4.9539 -2.022817,-7.5625 0.127387,-2.522 1.009254,-4.0757 2.560077,-5.5625 1.550893,-1.4867 3.664635,-2.2255 6.22643,-1.875 5.425699,0.7432 7.171592,4.8033 7.301153,6.7812 0.106572,1.6268 -1.046605,5.6333 -5.215022,5.4375 -2.889695,-0.13595 -4.514016,-1.751 -4.709319,-4.4375 -0.143913,-1.98 1.793834,-3.9473 4.930615,-2.9375 0.504895,0.16244 0.53906,-0.7328 -0.03161,-1.1875 -1.469171,-1.1706 -7.289218,-0.72308 -7.269496,3.875 0.01824,4.2611 3.46559,7.1059 6.795449,7.125 6.973659,0.04058 8.311449,-5.4023 8.059709,-9.1562 -0.279037,-4.1597 -5.553338,-9.1882 -11.568486,-9.1875 z"
     id="path3607" />
</svg>

<svg xmlns="http://www.w3.org/2000/svg" width="48" height="48"><defs><linearGradient id="a"><stop offset="0" stop-color="#dc85e9"/><stop offset="1" stop-color="#f2cbf8"/></linearGradient><linearGradient id="b"><stop offset="0" stop-color="#dc85e9"/><stop offset="1" stop-color="#f2cbf8"/></linearGradient><linearGradient id="c"><stop offset="0" stop-color="#fff" stop-opacity=".588"/><stop offset="1" stop-color="#fff" stop-opacity=".863"/></linearGradient><linearGradient id="d"><stop offset="0" stop-color="#b3b3b3"/><stop offset="1" stop-color="#e6e6e6"/></linearGradient><linearGradient id="e"><stop offset="0" stop-color="#e694bb"/><stop offset=".262" stop-color="#d3819a"/><stop offset=".705" stop-color="#b25a64"/><stop offset="1" stop-color="#98313d"/></linearGradient></defs><path style="line-height:normal;text-indent:0;text-align:start;text-decoration-line:none;text-transform:none;marker:none" d="M29.705-.084c-2.047.008-4.121.088-4.517.098H7a2.938 2.938 0 0 0-.563 0C5.063.276 3.975 1.612 4 3.012V45c0 1.57 1.43 3 3 3h34c1.57 0 3-1.43 3-3V18.818c.018-.792.215-9.927-.336-10.496L34.054.248c-.284-.275-2.302-.34-4.349-.332zm1.49 3.094l.133 7.504c.012.681.638 1.29 1.317 1.279l7.771-.137c.133.018.268.017.4-.006l.082 3.03L41 18.77v4.004c-.867-2.982-2.135-5.375-3.201-7.927l-5.309 2.187c1.22 2.47 2.817 4.934 3.381 6.156 1.578 3.423 2.155 4.954 2.024 7.563-.128 2.522-1.01 4.044-2.561 5.531-1.55 1.487-3.665 2.257-6.227 1.906-5.425-.742-7.17-4.803-7.3-6.78-.107-1.627 1.046-5.634 5.214-5.438 2.89.136 4.514 1.72 4.71 4.406.143 1.98-1.793 3.979-4.93 2.969-.505-.163-.54.732.031 1.187 1.47 1.17 7.32.723 7.3-3.875-.017-4.26-3.496-7.137-6.825-7.156-6.974-.04-8.313 5.433-8.06 9.187.278 4.16 5.552 9.189 11.567 9.188 3.736 0 8.217-2.67 10.186-7.068V44.998H7V3.021h18.672l5.523-.011z" color="#000" font-weight="400" font-family="Andale Mono" overflow="visible" fill="#e6e6e6"/><path d="M17.318 14.848c-3.86 0-8.508 2.839-10.367 7.5v10.875c.864 3.33 2.23 5.897 3.382 8.656l5.31-2.187c-1.219-2.47-2.818-4.934-3.382-6.156-1.578-3.423-2.154-4.954-2.023-7.563.128-2.522 1.01-4.076 2.56-5.562 1.551-1.487 3.665-2.226 6.227-1.875 5.426.743 7.172 4.803 7.301 6.78.107 1.628-1.046 5.634-5.215 5.438-2.89-.136-4.514-1.75-4.71-4.437-.143-1.98 1.795-3.948 4.931-2.938.505.163.54-.733-.031-1.187-1.47-1.17-7.29-.723-7.27 3.875.019 4.26 3.466 7.106 6.796 7.125 6.973.04 8.311-5.403 8.06-9.156-.28-4.16-5.554-9.189-11.569-9.188z" opacity=".75" fill="#999" fill-rule="evenodd"/></svg>
